src/assets/pictures/Organigrama x editar-03.svg

<svg xmlns="http://www.w3.org/2000/svg" viewBox="0 0 98.46 98.46"><defs><style>.cls-2{fill:#f9f9fa;stroke:#f9f9fa;stroke-miterlimit:10}</style></defs><g id="Layer_1" data-name="Layer 1"><circle cx="49.23" cy="49.23" r="49.23" style="fill:#f9e94a"/><path class="cls-2" d="M60.83 28.71a1.78 1.78 0 0 1 1.78 1.78h1.79a3.57 3.57 0 0 0-2.68-3.44v-1.91h-1.78v1.79h-2.68v3.56a3.57 3.57 0 0 0 3.57 3.57 1.79 1.79 0 0 1 1.78 1.79v1.78h-1.78a1.78 1.78 0 0 1-1.78-1.78h-1.79a3.57 3.57 0 0 0 2.68 3.44v1.91h1.78v-1.78h2.68v-3.57a3.57 3.57 0 0 0-3.57-3.57 1.79 1.79 0 0 1-1.78-1.79v-1.78Zm0 0"/><path class="cls-2" d="M76.89 45.66A24.11 24.11 0 0 0 52.8 21.58h-.89v25h11.6v10.7a1.79 1.79 0 0 1-1.79 1.79h-4.56a6.24 6.24 0 0 0-4.36-10.73h-6.24V25.15h-.9A24.08 24.08 0 0 0 41.2 72.9v4h18.74V68A1.33 1.33 0 0 1 61 66.73l2.85-.52a7.13 7.13 0 0 0 5.86-7V46.56h7.14ZM53.67 68.52l-.87.86-.86-.86.54-7.69h.64Zm3.59-13.94a4.46 4.46 0 1 1-4.46-4.46 4.47 4.47 0 0 1 4.46 4.46Zm-27.94 9.74a22.36 22.36 0 0 1-5.92-14.2h20.11ZM44.77 27v21.34H23.38A22.33 22.33 0 0 1 44.77 27ZM30.58 65.58 46 50.12h2.41a6.24 6.24 0 0 0 .3 9.2 9.83 9.83 0 0 0-7.54 9.54v2.2a22 22 0 0 1-10.62-5.48ZM68 59.19a5.35 5.35 0 0 1-4.4 5.26l-2.88.55a3.12 3.12 0 0 0-2.57 3v7.1h-10.7v-9.81h-1.79v9.81H43v-6.24a8 8 0 0 1 7.71-8l-.6 8.35 2.7 2.7 2.7-2.7-.59-8.37h6.81a3.57 3.57 0 0 0 3.57-3.57v-12a1.34 1.34 0 0 1 2.68 0Zm1.7-14.42a3.11 3.11 0 0 0-6.15 0h-9.86V23.38a22.34 22.34 0 0 1 21.4 21.39Zm0 0"/><path class="cls-2" d="M43 44.77v-8.92H26.93v8.92Zm-14.29-7.14H41.2V43H28.71Zm0 0"/><path class="cls-2" d="M30.5 39.42h1.78v1.78H30.5zM34.07 39.42h1.78v1.78h-1.78zM37.64 39.42h1.78v1.78h-1.78z"/></g></svg>

<svg xmlns="http://www.w3.org/2000/svg" viewBox="0 0 98.46 98.46"><defs><style>.cls-1{fill:#f9e94a;}.cls-2{fill:#f9f9fa;stroke:#f9f9fa;stroke-miterlimit:10;}</style></defs><g id="Layer_1" data-name="Layer 1"><circle class="cls-1" cx="49.23" cy="49.23" r="49.23"/><path class="cls-2" d="M60.83,28.71a1.78,1.78,0,0,1,1.78,1.78H64.4a3.57,3.57,0,0,0-2.68-3.44V25.14H59.94v1.79H57.26v3.56a3.57,3.57,0,0,0,3.57,3.57,1.79,1.79,0,0,1,1.78,1.79v1.78H60.83a1.78,1.78,0,0,1-1.78-1.78H57.26a3.57,3.57,0,0,0,2.68,3.44V41.2h1.78V39.42H64.4V35.85a3.57,3.57,0,0,0-3.57-3.57,1.79,1.79,0,0,1-1.78-1.79V28.71Zm0,0"/><path class="cls-2" d="M76.89,45.66A24.11,24.11,0,0,0,52.8,21.58h-.89v25h11.6v10.7a1.79,1.79,0,0,1-1.79,1.79H57.16A6.24,6.24,0,0,0,52.8,48.34H46.56V25.15h-.9A24.08,24.08,0,0,0,41.2,72.9v4H59.94V68A1.33,1.33,0,0,1,61,66.73l2.85-.52a7.13,7.13,0,0,0,5.86-7V46.56h7.14ZM53.67,68.52l-.87.86-.86-.86.54-7.69h.64Zm3.59-13.94a4.46,4.46,0,1,1-4.46-4.46,4.47,4.47,0,0,1,4.46,4.46ZM29.32,64.32a22.36,22.36,0,0,1-5.92-14.2H43.51ZM44.77,27V48.34H23.38A22.33,22.33,0,0,1,44.77,27ZM30.58,65.58,46,50.12h2.41a6.24,6.24,0,0,0,.3,9.2,9.83,9.83,0,0,0-7.54,9.54v2.2a22,22,0,0,1-10.62-5.48ZM68,59.19a5.35,5.35,0,0,1-4.4,5.26L60.72,65A3.12,3.12,0,0,0,58.15,68V75.1H47.45V65.29H45.66V75.1H43V68.86a8,8,0,0,1,7.71-8l-.6,8.35,2.7,2.7,2.7-2.7-.59-8.37h6.81a3.57,3.57,0,0,0,3.57-3.57v-12a1.34,1.34,0,0,1,2.68,0ZM69.7,44.77a3.11,3.11,0,0,0-6.15,0H53.69V23.38a22.34,22.34,0,0,1,21.4,21.39Zm0,0"/><path class="cls-2" d="M43,44.77V35.85H26.93v8.92ZM28.71,37.63H41.2V43H28.71Zm0,0"/><rect class="cls-2" x="30.5" y="39.42" width="1.78" height="1.78"/><rect class="cls-2" x="34.07" y="39.42" width="1.78" height="1.78"/><rect class="cls-2" x="37.64" y="39.42" width="1.78" height="1.78"/></g></svg>
